packages/IcoMoon/src/ListIcon/index.svg

<svg version="1.1" xmlns="http://www.w3.org/2000/svg" width="16" height="16" viewBox="0 0 16 16">
<path d="M0 0h4v4h-4zM6 1h10v2h-10zM0 6h4v4h-4zM6 7h10v2h-10zM0 12h4v4h-4zM6 13h10v2h-10z"></path>
</svg>

<svg xmlns="http://www.w3.org/2000/svg" viewBox="0 0 16 16">
  <path d="M0 0h4v4H0zm6 1h10v2H6zM0 6h4v4H0zm6 1h10v2H6zm-6 5h4v4H0zm6 1h10v2H6z"/>
</svg>
